X:1261
L:1/8
M:2/2
K:D
 B2 |{G} F2 (ED){B} A2 (GF) | A4 z2 (de) | f2 (ef) (gf)(ed) | e4 z2 A2 |{G} F2 (ED){B} A2 (GF) | 
 (G3 A B2) (AG) | A3 f (gf) (ef) | d6 || (de) | (fg) (ab) a2 (gf) | (ef) (ga) g2 (fe) | 
 d3 e (de) (fg) | e4 z2 A2 |{G} F2 (ED){B} A2 (GF) | G3 A B2 (AG) | A2 f2 (gf) (ef) | d6 |]

